source/images/icons/icon-utility/plus-circle-full.svg

<?xml version="1.0" encoding="UTF-8"?>
<svg width="24px" height="24px" viewBox="0 0 24 24" version="1.1" xmlns="http://www.w3.org/2000/svg" xmlns:xlink="http://www.w3.org/1999/xlink">
    <!-- Generator: Sketch 55.2 (78181) - https://sketchapp.com -->
    <title>Icons/24px/Plus-Circle-Full</title>
    <desc>Created with Sketch.</desc>
    <g id="Icons/24px/Plus-Circle-Full" stroke="none" stroke-width="1" fill="none" fill-rule="evenodd">
        <path d="M11,11 L8,11 C7.44771525,11 7,11.4477153 7,12 C7,12.5522847 7.44771525,13 8,13 L11,13 L11,16 C11,16.5522847 11.4477153,17 12,17 C12.5522847,17 13,16.5522847 13,16 L13,13 L16,13 C16.5522847,13 17,12.5522847 17,12 C17,11.4477153 16.5522847,11 16,11 L13,11 L13,8 C13,7.44771525 12.5522847,7 12,7 C11.4477153,7 11,7.44771525 11,8 L11,11 Z M12,23 C5.92486775,23 1,18.0751322 1,12 C1,5.92486775 5.92486775,1 12,1 C18.0751322,1 23,5.92486775 23,12 C23,18.0751322 18.0751322,23 12,23 Z" id="Icon" fill="#ADB5BD"></path>
    </g>
</svg>

<svg width="24" height="24">
    <title>
        Icons/24px/Plus-Circle-Full
    </title>
    <path d="M11 11H8a1 1 0 0 0 0 2h3v3a1 1 0 0 0 2 0v-3h3a1 1 0 0 0 0-2h-3V8a1 1 0 0 0-2 0v3zm1 12C5.925 23 1 18.075 1 12S5.925 1 12 1s11 4.925 11 11-4.925 11-11 11z" fill="#ADB5BD" fill-rule="evenodd"/>
</svg>
